X:1
T:To the old - Webbe
T:#
%%score [ 1 2 3 ]
L:1/8
Q:1/4=108
M:2/2
K:D
V:1 treble nm="1" snm="1"
V:2 treble nm="2" snm="2"
V:3 treble nm="3" snm="3"
V:1
"^To the old""^Samuel Webbe \n(1740-1816)" AA | d4 z2 ee | f4 d4 | d6 d2 | d4 d4 |[M:2/2] c4 B4 | %6
w: To the|old, to the|old, long|life and|trea- sure,|to the|
 A4 D4 | E6 E2 | A4 (AG)FE | D4 d4 | c6 AG | F2 d2 c2 e2 | d2 D2 A3 A | d4 c4 | B4 A4 | B4 A4 | %16
w: old, long|life and|trea- sure, * to the|old, long|life, to the|old, long life and|trea- sure, to the|old, long|life, long|life and|
 F2 F4 :| x2 | %18
w: trea- sure.||
V:2
 z2 | z2 A2 B2 c2 | d2 D2 z2 AA | d4 D2 F2 | (EF) (^GA) B4 |[M:2/2] z2 A2 A2 ^G2 | A4 F2 dd | %7
w: |long life and|trea- sure, To the|young, to the|young, * all * health,|all health and|plea- sure, to the|
 c2 (cB) A2 ^G2 | A4 A4 | z2 DE F2 F2 | E2 E2 E2 E2 | z2 FG A4 | z2 d2 e2 ee | f2 g2 e2 f2 | %14
w: young, all * health and|plea- sure,|to the young, all|health and plea- sure,|to the young,|all health, to the|young, all health and|
 d4 c2 dd | d2 d2 d2 c2 | d2 d4 :| x2 | %18
w: plea- sure,, to the|young, all health and|plea- sure.||
V:3
 z2 | z2 FF G2 E2 | D4 z4 | z2 (dc) B2 A2 | ^G2 E4 EE |[M:2/2] A2 A2 B2 dd | c2 e2 d2 ff | %7
w: |To the young, all|health,|all * health and|plea- sure, To the|fair, their face with e-|ter- nal grace, And the|
 e2 ed c2 B2 | c4 A4 | z4 z2 FG | A8- | A6 AA | d6 cc | d2 B2 c2 AA | B2 G2 A2 FF | G2 BG A2 A2 | %16
w: rest to be lov'd at|lei- sure,|To the|fair,|* to the|fair, to the|fair, their face with e-|ter- nal grace, And the|rest to be lov'd at|
 D2 D4 :| x2 | %18
w: lei- sure.||

